X: 17
T: Mazurka in B\b Minor, Op. 24, No. 4
C: Frederic Chopin
%%abc-version 2.0
%%abcx-abcm2ps-target-version 5.9.1 (29 Sep 2008)
%%abc-creator hum2abc beta
%%abcx-conversion-date 2021/01/17 12:55:01
%%abc-edited-by Craig Stuart Sapp
%%abcx-initial-encoding-date 2005/03/03/
%%gracespace 0 6 6
%%humdrum-veritas 993383133
%%humdrum-veritas-data 3710071878
%%linebreak <none>
%%barnumbers 0
L: 1/4
M: 3/4
N: Derived from mazurka24-4.krn
Q: "Moderato" 1/4=132
%%staves {1 2}
V: 1 clef=treble
V: 2 clef=bass
K: Db
[V:1] z & F- [I:setbarnb 1]| 
[V:2] z | 
[V:1] f2f & F3/FF/- | 
[V:2] z3 | 
[V:1] =e2e & F3/^FF/- | 
[V:2] z3 | 
[V:1] _e2e & F3/=GG/- | 
[V:2] z3 | 
[V:1] =d2d & G3/^GG/- | 
[V:2] z3 | 
[V:1] !accent!_d2!accent!d- & G3/=AA/ | 
[V:2] F,,[F,E][F,E] | 
[V:1] d3 & =A/>B/B!accent!B- | 
[V:2] B,,[F,D][E,=G,D] | 
[V:1] f2f- & B3/cc/ | 
[V:2] A,,[A,_G][A,G] | 
[V:1] f3 & c/>d/d!accent!d- | 
[V:2] D,[A,F][=G,B,F] | 
[V:1] a2a- & d3/=ee/ | 
[V:2] C,[K:clef=treble][CFB][C=GB] | 
[V:1] a2x & =e/>f/f!accent![ff']- | 
[V:2] x[CA][CA] & F,3 | 
[V:1] =a2!accent!=A & [f/f'/]>[_g/_g'/].[gg']x | 
[V:2] .D[K:clef=treble][C_E=A][Ec][K:clef=bass] | 
[V:1] [cc']>[Bb]_A/G/ | 
[V:2] .B,,[F,D][F,D] | 
[V:1] d>=Ad/A/ & F>GF/E/ | 
[V:2] .B,,[F,E][F,E] | 
[V:1] =A/>B/B!accent!B & E/>D/D=G | 
[V:2] .B,,[F,B,][E,D] | 
[V:1] f>cf/c/ & _A>__BA/_G/ | 
[V:2] A,,[A,_G][A,G] | 
[V:1] c/>d/d!accent!d & G/>F/F=B | 
[V:2] D,[A,D][=G,F] | 
[V:1] a>=ea/e/ & c>dc/_B/ | 
[V:2] .C,[K:clef=treble].[C_B].[CB] | 
[V:1] =e/>f/fx & B/>=A/.A!accent![ff'] | 
[V:2] [K:clef=bass]z.[CF][F,C=A] & F,2x | 
[V:1] [_a/_a'/]>[_g/_g'/].[gg']!accent!=A | 
[V:2] F,,[K:clef=treble]!accent![CE=Ac][K:clef=bass][F,CE] | 
[V:1] B3- ]|:  
[V:2] B,,[F,D]!accent![E,G,D] ]|:  
[V:1] B/z//[G//_A//]C/[G/A/]!accent!e | 
[V:2] A,,[E,A,][E,A,C] | 
[V:1] .B/z//[F//A//]D/[F/A/]!accent!f | 
[V:2] D,,[F,A,][F,A,D] | 
[V:1] B/z//[G//A//]C/[G/A/]!accent!g | 
[V:2] A,,[E,A,][E,A,C] | 
[V:1] {[F_cd]}!accent!b-b/z//a/<!accent!c/a// | 
[V:2] D,[A,_CF]=D, | 
[V:1] B/>>a/B/>>a/B/>>g/ | 
[V:2] E,[G,B,E]G,, | 
[V:1] __B/>>g/A/>>g/A/>>f/ | 
[V:2] .A,,[F,D][F,D] | 
[V:1] =G/>>f/_G/>>f/G/>>e/ | 
[V:2] .A,,[E,A,C][E,A,C] | 
[V:1] F/>>e/ (3d/e/d/ c/z/4B/4 & FF!accent!=E | 
[V:2] z[A,D]=G,, & D,2x | 
[V:1] .B/z//[_G//A//]C/[G/A/]!accent!e & CCx | 
[V:2] A,,[E,A,][E,A,C] | 
[V:1] .B/z//[F//A//]D/[F/A/]!accent!f | 
[V:2] D,,[F,A,][F,A,D] | 
[V:1] .B/z//[G//A//]C/[G/A/]!accent!g | 
[V:2] A,,[E,A,][E,A,C] | 
[V:1] {/[F_cd]}!accent!b-b/z//a/<c/a// | 
[V:2] D,[A,_CF]=D, | 
[V:1] B/>>a/B/>>a/B/>>g/ | 
[V:2] E,[G,B,E]G,, | 
[V:1] __B/>>g/A/>>g/A/>>f/ | 
[V:2] A,,[F,D][F,D] | 
[V:1] =G/>>=e/_G/>>_e/F/>>=d/ | 
[V:2] A,,[E,C]z | 
[V:1] _F/>>_d/E/>>d/E/>>d/- | 
[V:2] z3 | 
[V:1] d>=Ad/A/ & !accent!E>GF/E/ | 
[V:2] .F,,[F,C][F,C] | 
[V:1] =A/>B/B!accent!B & E/>D/D=G | 
[V:2] .B,,[F,B,][E,D] | 
[V:1] f>cf/c/ & A>__BA/_G/ | 
[V:2] .A,,[A,_G][A,G] | 
[V:1] c/>d/.d!accent!d & G/>F/F=B | 
[V:2] D,[A,D][=G,F] | 
[V:1] a>=ea/e/ & c>dc/_B/ | 
[V:2] C,[K:clef=treble][C_B][CB] | 
[V:1] =e/>f/.fx & B/>=A/A[ff']- | 
[V:2] z[CF][C=A][K:clef=bass] & F,3 | 
[V:1] [f/f'/]>[_g/_g'/][gg']!accent!=A | 
[V:2] F,,[K:clef=treble]!accent![C_E=A][Ec] | 
[V:1] c>B (3B/_A/G/ | 
[V:2] [K:clef=bass].B,,[F,D][F,D] | 
[V:1] d>=Ad/A/ & F/{/A}G/F/G/F/E/ | 
[V:2] .B,,[F,CE][F,CE] | 
[V:1] =A/>B/B(3B/c/B/ & E/>D/D!accent!=G | 
[V:2] .B,,[F,B,][E,D] | 
[V:1] f>=cf/c/ & A/{/_c}__B/A/B/A/G/ | 
[V:2] A,,[A,C_G][A,CG] | 
[V:1] c/>d/d(3d/e/d/ & G/>F/F!accent!=B | 
[V:2] D,[A,D][=G,F] | 
[V:1] a>=ea/e/ & c/{/e}d/c/d/c/_B/ | 
[V:2] C,[K:clef=treble][C=G_B][CGB][K:clef=bass] | 
[V:1] =e/>f/fx & B/>A/A[ff'] | 
[V:2] z[CF]x & F,2[F,C=A] | 
[V:1] [_a/_a'/]>[_g/_g'/][gg']=A |[1 
[V:2] F,,[K:clef=treble][C_E=Ac][K:clef=bass][F,CE] | 
[V:1] B3 :|][2 
[V:2] B,,[F,D]!accent![E,_G,D] :|]  
[V:1] B2!accent!f- ]|: 
[V:2] B,,[F,D]F- ]|:  
[V:1] fg3/d/ | 
[V:2] FG3/D/ | 
[V:1] =e/c/BB | 
[V:2] =E/C/B,B, | 
[V:1] f/a/gg/d/ | 
[V:2] F/A/GG/D/ | 
[V:1] =e/c/B2- | 
[V:2] =E/C/B,2 | 
[V:1] [B,=EB][=A,F=A][A,FA] | 
[V:2] !accent![C,=G,C][C,F,C][C,F,C] | 
[V:1] [=E/c/][B,/B/][=A,F=A][A,FA] | 
[V:2] [C,=G,C][C,F,C][C,F,C] | 
[V:1] [B,=EB][=A,F=A][A,FA] |[1 
[V:2] [C,=G,C][C,F,C][C,F,C] | 
[V:1] !accent!=A/=G/F2 & [B,=E][=A,2F2] :|][2 
[V:2] [C,=G,C][F,2C2] :|]  
[V:1] !accent!=A/=G/F!accent!F- & [B,=E]=A,x | 
[V:2] [C,=G,C][F,C]z | 
[V:1] (3F/_G/F/ E/F/G/A/ | 
[V:2] _G,,[E,B,][E,B,] | 
[V:1] c/ z/!accent!B2 | 
[V:2] G,,[E,B,][E,B,] | 
[V:1] A,/z//G// (3G/A/G/ F/E/ | 
[V:2] A,,[E,C][E,C] | 
[V:1] F/ z/!accent!Dz | 
[V:2] D,,[F,A,][F,A,] | 
[V:1] (3F/G/F/ E/F/G/A/ | 
[V:2] .G,,[E,__B,][E,B,] | 
[V:1] _c/ z/!accent!__B2 | 
[V:2] .G,,[E,D][E,D] | 
[V:1] A,/z//G// (3G/A/G/ _F/E/ | 
[V:2] .A,,[E,G,=C][E,G,C] | 
[V:1] _F/ z/!accent!Dz | 
[V:2] D,,[_F,A,][F,A,] | 
[V:1] (3^G/=A/G/ ^F/G/A/=B/ | 
[V:2] =A,,[^F,^C=E][F,CE] | 
[V:1] ^d/ z/!accent!^c2 | 
[V:2] A,,[^F,^C=E][F,CE] | 
[V:1] =B,/z//=A// (3A/=B/A/ ^G/^F/ | 
[V:2] =B,,[^F,=A,^D][F,A,D] | 
[V:1] .^G/ z/!accent!=Ez | 
[V:2] .=E,,[^G,=B,][G,B,] | 
[V:1] (3_F/_G/F/ E/F/G/A/ | 
[V:2] .G,,[E,__B,][E,B,] | 
[V:1] _c2__B | 
[V:2] .G,,[E,D][E,D] | 
[V:1] A,/z//G// (3G/A/G/ =F/E/ | 
[V:2] A,,[E,=C][E,C] | 
[V:1] !accent!B2A | 
[V:2] A,,[E,G,C][E,G,C] | 
[V:1] (3F/G/F/ E/F/G/A/ | 
[V:2] A,,,[E,G,C][E,G,C] | 
[V:1] c/ z/!accent!B2 | 
[V:2] A,,[E,G,C][E,G,C] | 
[V:1] .A,/z//G// {/G} (3G/A/G/ F/E/ | 
[V:2] A,,[E,G,C][E,G,C] | 
[V:1] F/ z/!accent!Dz | 
[V:2] D,,[F,A,][F,A,] | 
[V:1] (3F/G/F/ E/F/G/A/ | 
[V:2] G,,[E,__B,][E,B,] | 
[V:1] _c/ z/!accent!__B2 | 
[V:2] G,,[E,D][E,D] | 
[V:1] .A,/z//G// {/G} (3G/A/G/ _F/E/ | 
[V:2] A,,[E,G,=C][E,G,C] | 
[V:1] ._F/ z/!accent!Dz | 
[V:2] .D,,[_F,A,][F,A,] | 
[V:1] {/^G} (3G/=A/G/ ^F/G/A/=B/ | 
[V:2] =A,,[^F,^C=E][F,CE] | 
[V:1] ^d/ z/!accent!^c2 | 
[V:2] =A,,[^F,^C=E][F,CE] | 
[V:1] =B,/z//=A// {/A} (3A/=B/A/ ^G/^F/ | 
[V:2] =B,,[^F,=A,^D][F,A,D] | 
[V:1] ^G/ z/=Ez | 
[V:2] =E,,[^G,=B,][G,B,] | 
[V:1] {/_F}!trill!F_E/F/G/A/ | 
[V:2] _G,,[_E,__B,][E,B,] | 
[V:1] _c2__B | 
[V:2] G,,[E,D][E,D] | 
[V:1] A,/z//!accent!G// (3G/A/G/ =F/E/ | 
[V:2] A,,[E,G,=C]z | 
[V:1] A,/z//[G//B//] (3[G/B/]c/B/ [F/A/][E/G/] | 
[V:2] [A,,,A,,][E,G,C]z | 
[V:1] .A,/z//[G//e//] (3e/f/e/ [F/d/][E/c/] & x!accent!Gx | 
[V:2] .[A,,,A,,]!arpeggio![A,,E,G,C]z | 
[V:1] x(3g/a/g/x & .A,/ z// [__B//g//]!accent!B[A/f/][G/e/] | 
[V:2] .[A,,,A,,]!arpeggio![E,CG]z | 
[V:1] z/ z//> !accent!g//__B/>>!accent!g/B/>>!accent!g/ | 
[V:2] .[A,,,A,,][E,CG]z | 
[V:1] __B/>>!accent!g/B/>>!accent!g/A/>>f/ | 
[V:2] z3 | 
[V:1] =G/>>=e/_G/>>_e/F/>>=d/ | 
[V:2] z3 | 
[V:1] _F/>>_d/E/>>d/E/>>8d/- | 
[V:2] z3 | 
[V:1] d>=Ad/A/ & !accent!E>GF/E/ | 
[V:2] .F,,[F,C][F,C] | 
[V:1] =A/>B/.B!accent!B & E/>D/D=G | 
[V:2] B,,[F,B,][E,D] | 
[V:1] f>cf/c/ & _A>__BA/_G/ | 
[V:2] A,,[A,_G][A,G] | 
[V:1] c/>d/d!accent!d & G/>F/F=B | 
[V:2] D,[A,D][=G,F] | 
[V:1] a>=eg/e/ & c>dc/B/ | 
[V:2] C,[K:clef=treble][C_B][CB][K:clef=bass] | 
[V:1] =e/>f/fx & B/>=A/A[ff']- | 
[V:2] z[CF]!accent![C=A] & F,3 | 
[V:1] [f/f'/]>[_g/_g'/].[gg']!accent!=A | 
[V:2] .F,,[K:clef=treble][C_E=A]!accent![Ec][K:clef=bass] | 
[V:1] c>B (3B/A/G/ | 
[V:2] .B,,[F,D][F,D] | 
[V:1] !accent!d>=Ad/A/ & F/{/A}G/F/G/F/E/ | 
[V:2] .B,,[F,E][F,E] | 
[V:1] =A/>B/B(3B/c/B/ & E/>D/D=G | 
[V:2] .B,,[F,B,][E,D] | 
[V:1] !accent!f>=cf/c/ & A/{/_c}__B/A/B/A/G/ | 
[V:2] .A,,[A,C_G][A,CG] | 
[V:1] c/>d/d(3d/e/d/ & G/>F/F=B | 
[V:2] .D,[A,D][=G,F] | 
[V:1] a>=ea/e/ & c/{/e}d/c/d/c/_B/ | 
[V:2] .C,[K:clef=treble][C=G_B][CGB][K:clef=bass] | 
[V:1] =e/>f/f[ff'] & B/>=A/Ax | 
[V:2] z[CF]!arpeggio![F,CA] & F,2x | 
[V:1] [_a/_a'/]>[_g/_g'/].[gg']!accent!=A | 
[V:2] F,,[K:clef=treble][C_E=Ac][K:clef=bass][F,CE] | 
[V:1] B3- | 
[V:2] .B,,[F,D][F,D] | 
[V:1] B/>c/c!accent!c | 
[V:2] .B,,[G,B,E][G,B,E] | 
[V:1] c/d/!accent!d2- | 
[V:2] .B,,[=G,B,=E][G,B,E] | 
[V:1] d/>c/!accent!c3/B/ | 
[V:2] .B,,[=G,C=E][G,CE] | 
[V:1] B/G/!accent!G2 | 
[V:2] .B,,[_G,D_F][G,DF] | 
[V:1] c/B<!accent!BG/ | 
[V:2] .B,,[G,CE][G,CE] | 
[V:1] {/A} G/F/F2 | 
[V:2] z[F,D][F,D] & B,,3 | 
[V:1] c/B<!accent!BE/ | 
[V:2] .B,,[G,B,C][G,B,C] | 
[V:1] {/F} E/D/!accent!D2 | 
[V:2] z[F,B,][F,B,] & B,,3 | 
[V:1] B/>c/.c!accent!c | 
[V:2] B,,[G,B,E][G,B,E] | 
[V:1] c/d/!accent!d2- | 
[V:2] .B,,[=G,B,=E][G,B,E] | 
[V:1] d/>c/!accent!c3/B/ | 
[V:2] .B,,[=G,C=E][G,CE] | 
[V:1] B/G/!accent!G2 | 
[V:2] .B,,[_G,D_F][G,DF] | 
[V:1] c/B<!accent!BG/ | 
[V:2] .B,,[G,E][G,E] | 
[V:1] {/A} G/F/!accent!F2- | 
[V:2] .B,,[F,=D][F,D] | 
[V:1] F3- | 
[V:2] .B,,[F,=A,C][F,A,C] | 
[V:1] F3- | 
[V:2] .B,,[F,B,=D][F,B,D] | 
[V:1] F/c<=dc/ | 
[V:2] .B,,[F,=A,E][F,A,E] | 
[V:1] f/c<=dc/ | 
[V:2] [F,=A,E][F,A,E][F,A,E] | 
[V:1] c/B<BG/ | 
[V:2] .B,,[G,B,E][G,B,E] | 
[V:1] {/A} G/F/!accent!F2- | 
[V:2] .B,,[F,B,=D][F,B,D] | 
[V:1] F/c<=dc/ | 
[V:2] .B,,[F,=A,E][F,A,E] | 
[V:1] f/c<=dc/ | 
[V:2] [F,=A,E][F,A,E][F,A,E] | 
[V:1] c/B<!accent!BG/ | 
[V:2] B,,[G,D_F][G,DF] | 
[V:1] z3 | 
[V:2] .[G,D_F].[G,DF].[G,^C=E] | 
[V:1] {/!fermata!A} G/F/!accent!F2- | 
[V:2] B,,[F,=D][F,D] | 
[V:1] F3- | 
[V:2] [F,=D][F,D][F,D] | 
[V:1] F3 | 
[V:2] .F,,[F,=A,C][F,A,C] | 
[V:1] !accent!F3- | 
[V:2] =D,,[F,=A,=D][F,A,D] | 
[V:1] F3- | 
[V:2] .B,,,[=D,B,=D][D,B,D] | 
[V:1] F3 | 
[V:2] [=D,B,=D][D,B,D][D,B,D] | 
[V:1] c/B<BG/ | 
[V:2] z3 | 
[V:1] {/A} G/F/!accent!!fermata!F2 |]  
[V:2] !fermata!z3 |]  


